!!!COM:	Martini, Johannes
!!!CDT:	~1440///-~1497//
!!!OPR:	Missa Coda di pavon
!!!ONM:	4
!!!OTL:	Sanctus
!!!AGN:	Mass; Sanctus
!!!SCT:	Mar1002d
!!!SCA:	Mar1002d
!!!voices:	4
!!!voices-OPR:	4
**kern	**kern	**kern	**kern
*staff4	*staff3	*staff2	*staff1
*Ivox	*Ivox	*Ivox	*Ivox
*I"Bassus	*I"Tenor	*I"Contra	*I"Superius
*I'B	*I'T	*I'C	*I'S
*>[A,B,C,D,C]	*>[A,B,C,D,C]	*>[A,B,C,D,C]	*>[A,B,C,D,C]
*>A	*>A	*>A	*>A
*clefF4	*clefGv2	*clefGv2	*clefG2
*k[]	*k[]	*k[]	*k[]
*M2/1	*M2/1	*M2/1	*M2/1
*met(C)	*met(C)	*met(C)	*met(C)
=1-	=1-	=1-	=1-
!!section: Sanctus
!!!OMD: Sanctus
0G	0g	1d	0g
.	.	1e	.
=2	=2	=2	=2
0D	0f	2d\	0a
.	.	4c\	.
.	.	4B\	.
.	.	2A/	.
.	.	[2d\	.
=3	=3	=3	=3
2.G\	1g	4d\]	2.b\
.	.	4c\	.
.	.	2B\	.
4F\	.	.	4cc\
2D\	2f\	2A/	2dd\
2C/	[2g\	[2c\	[2ee\
=4	=4	=4	=4
2E\	2g\]	2c\]	2ee\]
2F\	4f\	2.d\	4dd\
.	4e\	.	4cc\
2G\	2d\	.	2b\
.	.	4e\	.
2A\	2c\	2f\	[2cc\
=5	=5	=5	=5
1G	1d	0g	2cc\]
.	.	.	2b\
1C	1c	.	2cc\
.	.	.	[2g/
=6	=6	=6	=6
0r	1G	0r	4g/]
.	.	.	4a/
.	.	.	2b\
.	2A/	.	2cc\
.	2B\	.	2dd\
=7	=7	=7	=7
0r	2c\	0r	2cc\
.	2d\	.	2.a/
.	2c\	.	.
.	.	.	4b\
.	2A/	.	[2cc\
=8	=8	=8	=8
0r	2.c\	0r	4cc\]
.	.	.	4b\
.	.	.	2g/
.	4B\	.	.
.	2G/	.	2b-\
.	2d\	.	[2a/
=9	=9	=9	=9
0r	2B\	0r	4a/]
.	.	.	4g/
.	2c\	.	1g
.	1A	.	.
.	.	.	2f#i/
=10	=10	=10	=10
1r	1G	2r	1g
.	.	2d\	.
1c	1r	2e\	1r
.	.	2e\	.
=11	=11	=11	=11
2B\	0r	1d	0r
2B\	.	.	.
2c\	.	2c\	.
4B\	.	[2g\	.
4A\	.	.	.
=12	=12	=12	=12
2G\	0r	2g\]	0r
2A\	.	4f\	.
.	.	4e\	.
2B\	.	4d\	.
.	.	4e\	.
2A\	.	4f\	.
.	.	4g\	.
=13	=13	=13	=13
2c\	0r	2e\	0r
2B\	.	2.d\	.
2.G\	.	.	.
.	.	4c\	.
.	.	4B\	.
4F\	.	4A/	.
=14	=14	=14	=14
4E\	0r	2G/	0r
4D\	.	.	.
2C/	.	2c\	.
2BB-/	.	2d\	.
[2C/	.	[2e\	.
=15	=15	=15	=15
4C/]	0r	4e\]	0r
4D\	.	4d\	.
2E\	.	1c	.
1D	.	.	.
.	.	2B\	.
=16	=16	=16	=16
1C	0c	1c	1.e
1r	.	1A	.
.	.	.	2f/
=17	=17	=17	=17
1C	1c	1G	2g/
.	.	.	2a/
[1G	1d	1r	2b\
.	.	.	2cc\
=18	=18	=18	=18
1G]	1B	2r	2.dd\
.	.	2G/	.
.	.	.	4cc\
2C/	2c\	2A/	2ee\
[2BB-i/	2d\	[2B-\	[2dd\
=19	=19	=19	=19
2BB-/]	2f\	4B-\]	4dd\]
.	.	4A/	4cc\
2C/	2e\	2G/	1cc
1G	1d	2r	.
.	.	2g\	2b\
=20	=20	=20	=20
0C	0c	2a\	1cc
.	.	2g\	.
.	.	1e	2r
.	.	.	2g/
=21	=21	=21	=21
0r	2r	2f\	2a/
.	2G/	4e\	2b\
.	.	4d\	.
.	2A/	2c\	2cc\
.	2B\	2r	4b\
.	.	.	4a/
=22	=22	=22	=22
1r	2c\	0r	2g/
.	4B\	.	2r
.	4A/	.	.
2r	2G/	.	2.dd\
2D\	[2d\	.	.
.	.	.	4cc\
=23	=23	=23	=23
2G\	2d\]	0r	2b\
2A\	2.c\	.	2.a/
2F\	.	.	.
.	4d\	.	4g/
2G\	2B\	.	[2g/
=24	=24	=24	=24
1D	1A	1r	2g/]
.	.	.	2f#i/
1G	1G	2r	1g
.	.	2d\	.
=25	=25	=25	=25
1C	0c	1e	1r
2F\	.	1f	2r
2A\	.	.	2a/
=26	=26	=26	=26
1G	2r	1.g	1b
.	2d\	.	.
2C/	1e	.	1cc
2E\	.	4f\	.
.	.	4g\	.
=27	=27	=27	=27
1D	2.f\	2.a\	1dd
.	4e\	4g\	.
1A	1c	1e	2r
.	.	.	2ee\
=28	=28	=28	=28
1B-	2r	1r	2dd\
.	2d\	.	2ff\
2c\	2e\	1a	2ee\
2d\	2f\	.	[2dd\
=29	=29	=29	=29
2G\	2g\	0g	4dd\]
.	.	.	4cc\
2c\	2e\	.	1cc
1G	1d	.	.
.	.	.	2b\
=30	=30	=30	=30
0Cl	0cl	0gl	0ccl
!!LO:LB:i:g=z
=31||	=31||	=31||	=31||
*>B	*>B	*>B	*>B
*clefF4	*clefGv2	*clefGv2	*clefG2
*k[]	*k[]	*k[]	*k[]
*M2/1	*M2/1	*M2/1	*M2/1
*met(C)	*met(C)	*met(C)	*met(C)
!!section: Pleni sunt celi
!!!OMD: Pleni sunt celi
0r	0r	1G	0r
.	.	[1c	.
=32	=32	=32	=32
0r	0r	2c\]	1r
.	.	2d\	.
.	.	2.e\	1g
.	.	4d\	.
=33	=33	=33	=33
0r	0r	2e\	1.cc
.	.	1f	.
.	.	4e\	2dd\
.	.	4d\	.
=34	=34	=34	=34
0r	0r	1c	2.ee\
.	.	.	4dd\
.	.	1r	2ee\
.	.	.	[2ff\
=35	=35	=35	=35
0r	0r	2.d\	2ff\]
.	.	.	4ee\
.	.	4e\	4dd\
.	.	2f\	1cc
.	.	[2e\	.
=36	=36	=36	=36
0r	0r	2e\]	1r
.	.	4d\	.
.	.	4c\	.
.	.	1B	2.dd\
.	.	.	4ee\
=37	=37	=37	=37
0r	0r	2A/	2ff\
.	.	1c	1ee
.	.	4B\	4dd\
.	.	4A/	4cc\
=38	=38	=38	=38
0r	0r	2G/	1b
.	.	2g\	.
.	.	2f\	2a/
.	.	[2a\	[2cc\
=39	=39	=39	=39
0r	0r	2a\]	2cc\]
.	.	4g\	4b\
.	.	4f\	4a/
.	.	2e\	2g/
.	.	2f\	2dd\
=40	=40	=40	=40
0r	0r	2a\	2cc\
.	.	2.g\	2.ee\
.	.	4e\	4dd\
.	.	2f\	[2cc\
=41	=41	=41	=41
0r	0r	1d	2cc\]
.	.	.	2b\
.	.	[1c	1cc
=42	=42	=42	=42
0r	0r	1c]	2g/
.	.	.	1a
.	.	1r	.
.	.	.	2g/
=43	=43	=43	=43
0r	0r	2g\	2e/
.	.	1a	2d/
.	.	.	2f/
.	.	2g\	4e/
.	.	.	4d/
=44	=44	=44	=44
0r	0r	2e\	2c/
.	.	2d\	2r
.	.	2f\	2d/
.	.	4e\	2c/
.	.	4d\	.
=45	=45	=45	=45
0r	0r	1c	1e
.	.	2d\	2f/
.	.	2c\	[2g/
=46	=46	=46	=46
0r	0r	2e\	2g/]
.	.	2f\	2a/
.	.	2g\	2b\
.	.	2e\	2cc\
=47	=47	=47	=47
0r	0r	1d	4b\
.	.	.	4a/
.	.	.	4g/
.	.	.	4f/
.	.	2c\	2e/
.	.	2B\	[2d/
=48	=48	=48	=48
0r	0r	1G	2d/]
.	.	.	1g
.	.	1A	.
.	.	.	2f#i/
=49	=49	=49	=49
0r	1r	1G	1g
.	1C	1c	1r
=50	=50	=50	=50
0r	2BB/	2d\	0r
.	2C/	2e\	.
.	2D/	2f\	.
.	[2E/	[2g\	.
=51	=51	=51	=51
0r	4E/]	2g\]	0r
.	4F/	.	.
.	2.G/	2e\	.
.	.	1d	.
.	4A/	.	.
.	2B\	.	.
=52	=52	=52	=52
0r	2c\	2c\	0r
.	4B\	1g	.
.	4A/	.	.
.	2G/	.	.
.	2A/	2f\	.
=53	=53	=53	=53
0r	2G/	2e\	0r
.	4F/	4d\	.
.	4E/	4c\	.
.	1D	2.B\	.
.	.	4A/	.
=54	=54	=54	=54
0r	1C	1c	2.e/
.	.	.	4f/
.	[1c	[1e	2g/
.	.	.	2a/
=55	=55	=55	=55
0r	1c]	1e]	2g/
.	.	.	2cc\
.	1G	1d	2b\
.	.	.	4a/
.	.	.	4g/
=56	=56	=56	=56
0r	1d	1f	2a/
.	.	.	4g/
.	.	.	4f/
.	2.c\	2g\	2e/
.	.	[2e\	[2g/
.	4B\	.	.
=57	=57	=57	=57
0r	2.G/	2e\]	4g/]
.	.	.	4a/
.	.	4d\	4b\
.	4F/	4c\	4cc\
.	2D/	2B\	2dd\
.	2C/	[2c\	[2ee\
=58	=58	=58	=58
0r	1c	4c\]	4ee\]
.	.	4d\	4dd\
.	.	2e\	2cc\
.	2G/	2d\	2b\
.	2A/	2c\	[2cc\
=59	=59	=59	=59
0r	1G	1d	2cc\]
.	.	.	2b\
.	1Cl	1cl	1ccl
!!LO:LB:i:g=z
=60||	=60||	=60||	=60||
*>C	*>C	*>C	*>C
*clefF4	*clefGv2	*clefGv2	*clefG2
*k[]	*k[]	*k[]	*k[]
*M2/1	*M2/1	*M2/1	*M2/1
*met(C)	*met(C)	*met(C)	*met(C)
!!section: Osanna
!!!OMD: Osanna
3%2CV	3%4cV	3%2eV	3%4gV
3%2E	.	3%2g	.
3%2FZ	3%2cZ	3%2aZ	3%2fZ
=61	=61	=61	=61
3%4GV	3%2BV	3%4gV	3%4dV
.	3%2B	.	.
[3%2CZ	3%2cZ	3%2gZ	[3%2eZ
=62	=62	=62	=62
3%2C]V	3%2cV	3%4gV	3%2e]V
3%2r	3%2G	.	3%2d
3%2FZ	3%2AZ	3%2cZ	3%2cZ
=63	=63	=63	=63
3%2EV	3%2GV	2e\V	3%2.gV
.	.	6f\	.
3%2C	3%2c	3g\	.
.	.	3a\	3e/
3%2BB-Z	3%2dZ	3%2b-Z	3f/
.	.	.	3g/Z
=64	=64	=64	=64
3%2CV	3%2.cV	3%4gV	3%2eV
3%4GZ	.	.	3%4dZ
.	3B\	.	.
.	2B\	3%2gZ	.
.	6A/Z	.	.
=65	=65	=65	=65
3%4CV	3%2cV	3%2eV	3%4cV
.	3%4eZ	3%2c	.
[3%2cZ	.	3%2AZ	3%2rZ
=66	=66	=66	=66
3%2c]V	3%2cV	3%2rV	3%2gV
3%2F	3%2f	3%2c	3%2a
3%2AZ	3%2eZ	3%2cZ	3%2ccZ
=67	=67	=67	=67
3%4GV	3%4gV	3%2dV	3%4bV
.	.	3%2B	.
3%2CZ	3%2eZ	3%2cZ	3%2gZ
=68	=68	=68	=68
3%2.FV	3%2fV	3%2AV	3%2.aV
.	3%2.c	3%2A	.
3E\	.	.	3g/
3%2CZ	.	[3%2cZ	3e/
.	3B\Z	.	3d/Z
=69	=69	=69	=69
3%2EV	3%2GV	3%2c]V	3%2.gV
3%4DZ	3%4AZ	3%4dZ	.
.	.	.	3f#i/
.	.	.	3f#i/
.	.	.	3e/Z
=70	=70	=70	=70
3%2EV	3%2GV	3%2BV	3%2gV
3%2F	3%2c	3%2A	3%2r
3%2AZ	3%2rZ	3%2cZ	3%2aZ
=71	=71	=71	=71
3%2GV	3%2dV	3%4BV	3%2bV
3%2E	3%2e	.	3%2r
3%2AZ	3%2rZ	3%2AZ	3%2ccZ
=72	=72	=72	=72
3%4DV	3%2.fV	3%4AV	3%2ddV
.	.	.	3%2r
.	3e\	.	.
3%2rZ	3%2cZ	3%2AZ	3%2eeZ
=73	=73	=73	=73
3%4DV	3%4dV	3%4aV	3%2.ffV
.	.	.	3ee\
3%2DZ	3%2fZ	[3%2aZ	3%2ddZ
=74	=74	=74	=74
3%2AV	3%2eV	3%2a]V	3%2ccV
3%2B-	3%2d	3%4fZ	3%2r
3%2dZ	3%2rZ	.	3%2ffZ
=75	=75	=75	=75
3%4cV	3%2gV	3%2gV	3%2eeV
.	3%2e	3%2a	3%2cc
[3%2B-iZ	3d\	2b-\	[3%2ddZ
.	[3f\Z	.	.
.	.	6a\Z	.
=76	=76	=76	=76
3%2B-]V	3f\]V	3f\V	3%2dd]V
.	3e\	3g\	.
3%2A	3%2c	3%2a	3%2ee
3%2B-iZ	3%2fZ	3%2dZ	3dd\
.	.	.	3cc\Z
=77	=77	=77	=77
3%2cV	3%2eV	3%4gV	3%2.ccV
3%4GZ	3%4dZ	.	.
.	.	.	3b\
.	.	3%2gZ	3b\
.	.	.	3a/Z
=78	=78	=78	=78
0Cl	0cl	0gl	0ccl
!!LO:LB:i:g=z
!!LO:TX:rj:i:Y=30:t=fine
=79||	=79||	=79||	=79||
*>D	*>D	*>D	*>D
*clefF4	*clefGv2	*clefGv2	*clefG2
*k[]	*k[]	*k[]	*k[]
*M2/1	*M2/1	*M2/1	*M2/1
*met(C)	*met(C)	*met(C)	*met(C)
!!section: Benedictus
!!!OMD: Benedictus
0r	0r	0r	[0g
=80	=80	=80	=80
0r	0r	0r	1g]
.	.	.	1a
=81	=81	=81	=81
[0G	0r	0r	1b
.	.	.	[1dd
=82	=82	=82	=82
1G]	0r	0r	2dd\]
.	.	.	4cc\
.	.	.	4b\
1A	.	.	1cc
=83	=83	=83	=83
1B	0r	0r	2.dd\
.	.	.	4cc\
[1d	.	.	2a/
.	.	.	[2b\
=84	=84	=84	=84
2d\]	0r	0r	4b\]
.	.	.	4a/
4c\	.	.	4g/
4B\	.	.	4f/
1c	.	.	1e
=85	=85	=85	=85
2.d\	0r	0r	1d
4c\	.	.	.
2A\	.	.	1r
[2B\	.	.	.
=86	=86	=86	=86
4B\]	0r	0r	1.g
4A\	.	.	.
4G\	.	.	.
4F\	.	.	.
1E	.	.	.
.	.	.	4f/
.	.	.	4e/
=87	=87	=87	=87
1D	0r	0r	2.f/
.	.	.	4g/
1r	.	.	2a/
.	.	.	[2b-i\
=88	=88	=88	=88
1.G	0r	0r	4b-\]
.	.	.	4cc\
.	.	.	1dd
2E\	.	.	4cc\
.	.	.	4bni\
=89	=89	=89	=89
2.F\	0r	0r	2.a/
4G\	.	.	4b\
2A\	.	.	2cc\
[2B-\	.	.	[2dd\
=90	=90	=90	=90
4B-\]	0r	0r	4dd\]
4c\	.	.	4cc\
1d	.	.	1b
4c\	.	.	4a/
4Bni\	.	.	4g/
=91	=91	=91	=91
1A	0r	0r	2.f#i/
.	.	.	4e/
1G	.	.	1g
=92	=92	=92	=92
0r	0r	0G	1r
.	.	.	1d
=93	=93	=93	=93
0r	0r	1.c	1.e
.	.	4B\	4d/
.	.	4A/	4c/
=94	=94	=94	=94
0r	0r	1B	1.d
.	.	1G	.
.	.	.	[2e/
=95	=95	=95	=95
0r	0r	1A	2e/]
.	.	.	2f/
.	.	2B\	[1g
.	.	[2c\	.
=96	=96	=96	=96
0r	0r	2c\]	2g/]
.	.	2c\	1a
.	.	1d	.
.	.	.	2b\
=97	=97	=97	=97
0r	0r	2e\	1.cc
.	.	1f	.
.	.	2f\	[2dd\
=98	=98	=98	=98
0r	0r	2.g\	2dd\]
.	.	.	2ee\
.	.	4f\	.
.	.	1d	1ff
=99	=99	=99	=99
0r	0r	2.c\	2ee\
.	.	.	1cc
.	.	4d\	.
.	.	4e\	.
.	.	4f\	.
.	.	2g\	2b\
=100	=100	=100	=100
0r	0r	2a\	2cc\
.	.	2f\	1dd
.	.	1g	.
.	.	.	[2g/
=101	=101	=101	=101
0r	0r	1c	2g/]
.	.	.	1cc
.	.	1d	.
.	.	.	2b\
=102	=102	=102	=102
0r	0r	0c	1cc
.	.	.	1r
=103	=103	=103	=103
0r	0r	1r	1.cc
.	.	1e	.
.	.	.	4b\
.	.	.	4a/
=104	=104	=104	=104
0r	0r	1d	1b
.	.	[1f	1a
=105	=105	=105	=105
0r	0r	2f\]	1dd
.	.	4e\	.
.	.	4d\	.
.	.	1e	1cc
=106	=106	=106	=106
0r	0r	1d	2dd\
.	.	.	1b
.	.	1g	.
.	.	.	4a/
.	.	.	4g/
=107	=107	=107	=107
0r	0r	1f	1a
.	.	2g\	1g
.	.	[2e\	.
=108	=108	=108	=108
0r	0r	2e\]	1cc
.	.	4d\	.
.	.	4c\	.
.	.	2d\	2b\
.	.	2c\	[2a/
=109	=109	=109	=109
0r	0r	1f	2a/]
.	.	.	4g/
.	.	.	4f/
.	.	2e\	2g/
.	.	[2d\	[2f/
=110	=110	=110	=110
0r	0r	2d\]	2f/]
.	.	4c\	4e/
.	.	4B\	4d/
.	.	2c\	2e/
.	.	[2B\	2d/
=111	=111	=111	=111
0r	0r	2B\]	1g
.	.	4A/	.
.	.	4G/	.
.	.	2A/	2f/
.	.	[2G/	[2g/
=112	=112	=112	=112
0r	0r	2G/]	4g/]
.	.	.	4f/
.	.	1c	2e/
.	.	.	1d
.	.	2B\	.
=113	=113	=113	=113
*M3/1	*M3/1	*M3/1	*M3/1
*met(3)	*met(3)	*met(3)	*met(3)
1C	0.r	1c	0c
1F	.	1r	.
1E	.	1G	1r
=114	=114	=114	=114
1F	0.r	1c	1r
1D	.	1B	1r
1C	.	1c	1g
=115	=115	=115	=115
1r	0.r	1A	1cc
1G	.	1G	1b
1A	.	1c	1cc
=116	=116	=116	=116
1F	0.r	1f	1a
1c	.	1e	1g
1F	.	1f	1cc
=117	=117	=117	=117
1B-	0.r	1d	1dd
1A	.	1c	1.ee
[1c	.	[1e	.
.	.	.	2dd\
=118	=118	=118	=118
1c]	0.r	1e]	0cc
0G	.	0d	.
.	.	.	1b
=119	=119	=119	=119
0.Cl	0.r	0.cl	0.ccl
!!LO:TX:i:Y=40:rj:t=Osanna ut supra
=||	=||	=||	=||
*-	*-	*-	*-
!!!RDF**kern: l=long note in original notation
!!!RDF**kern: i=editorial accidental
!!!RDF**kern: V=start of tuplet marker
!!!RDF**kern: Z=end of tuplet marker
!!!ENC:	Chris Gage 11-13-2013
!!!END:	2014/06/21/
!!!EED:	Jesse Rodin
!!!EEV:	2015/03/09/
!!!ONB:	Translated from MusicXML and edited on 2015/03/09/ by Craig Sapp
!!muse2ps: T^@{OPR}^u^@{ONM}{. }@{OTL}^C^@{COM}^i2I150v85,85,85,150Q16
